X:95
M:6/8
L:1/4
K:Eb
G3/4 G// G/ G/ G/ G/ | A3/4 A// A/ G E/ | B3/4 B// B/ B/ B/ B/ | c/ B/ G/ F3/2 | G3/4 G// G/ G/ G/ G/ | A3/4 A// A/ G E/ | B3/4 B// B/ c/ B/ G/ | E/ G/ F/ E3/2 | G3/4 G// G/ G/ G/ G/ | A3/4 A// A/ G E/ | B3/4 B// B/ c/ B/ G/ | E/ G/ F/ E3/2 | c3/4 c// c/ c/ c/ c/ | G3/4 G// G/ G G/ | !sintro!B3/4 B// B/ B/ B/ B/ | F3/4 G// =A/ B3/2 !eintro!|]
